svgs/sharp-solid/staff-snake.svg

<svg xmlns="http://www.w3.org/2000/svg" viewBox="0 0 384 512"><!--! Font Awesome Pro 6.6.0 by @fontawesome - https://fontawesome.com License - https://fontawesome.com/license (Commercial License) Copyright 2024 Fonticons, Inc. --><path d="M208 511l0 1-32 0 0-1-1.5-47L136 464l-40 0 0-80 40 0 36 0-1-32-19 0c-53 0-96-43-96-96c0-47.6 34.6-87.1 80-94.7l0 94.7c0 8.8 7.2 16 16 16l16.5 0L164 128l-28 0-9.2 0c-4.5 18.4-21.1 32-40.8 32L0 160 0 96C0 69.5 21.5 48 48 48l10 0c1.1 0 2.3 0 3.4 .1c.9-.1 1.7-.1 2.6-.1l97.5 0L160 0l64 0-1.5 48L288 48c53 0 96 43 96 96s-43 96-96 96l-40 0 0-80 40 0c8.8 0 16-7.2 16-16s-7.2-16-16-16l-40 0-28 0-4.5 144 40.5 0c53 0 96 43 96 96s-43 96-96 96l-16 0 0-80 16 0c8.8 0 16-7.2 16-16s-7.2-16-16-16l-43 0-5 159zM64 112a16 16 0 1 0 0-32 16 16 0 1 0 0 32z"/></svg>

<svg xmlns="http://www.w3.org/2000/svg" viewBox="0 0 384 512"><!--! Font Awesome Pro 6.5.2 by @fontawesome - https://fontawesome.com License - https://fontawesome.com/license (Commercial License) Copyright 2024 Fonticons, Inc. --><path d="M208 511l0 1H176l0-1-1.5-47H136 96V384h40 36l-1-32H152c-53 0-96-43-96-96c0-47.6 34.6-87.1 80-94.7V256c0 8.8 7.2 16 16 16h16.5L164 128H136h-9.2c-4.5 18.4-21.1 32-40.8 32H0V96C0 69.5 21.5 48 48 48H58c1.1 0 2.3 0 3.4 .1c.9-.1 1.7-.1 2.6-.1h97.5L160 0h64l-1.5 48H288c53 0 96 43 96 96s-43 96-96 96H248V160h40c8.8 0 16-7.2 16-16s-7.2-16-16-16H248 220l-4.5 144H256c53 0 96 43 96 96s-43 96-96 96H240V384h16c8.8 0 16-7.2 16-16s-7.2-16-16-16H213l-5 159zM64 112a16 16 0 1 0 0-32 16 16 0 1 0 0 32z"/></svg>
